static/img/kroki/4f1a842abaefa9489cc2a8119e7fdc40.svg

<?xml version="1.0" encoding="us-ascii" standalone="no"?><svg xmlns="http://www.w3.org/2000/svg" xmlns:xlink="http://www.w3.org/1999/xlink" contentStyleType="text/css" height="252px" preserveAspectRatio="none" style="width:555px;height:252px;" version="1.1" viewBox="0 0 555 252" width="555px" zoomAndPan="magnify"><defs/><g><!--class digitalocean_container_registry_repository--><g id="elem_digitalocean_container_registry_repository"><rect codeLine="22" fill="#3D176E" height="39.7891" id="digitalocean_container_registry_repository" rx="2.5" ry="2.5" style="stroke:#000D19;stroke-width:0.5;" width="397" x="7" y="106.79"/><ellipse cx="22" cy="126.6845" fill="#ADD1B2" rx="11" ry="11" style="stroke:#181818;stroke-width:1.0;"/><path d="M24.9688,132.3252 Q24.3906,132.622 23.75,132.7627 Q23.1094,132.9189 22.4063,132.9189 Q19.9063,132.9189 18.5781,131.2783 Q17.2656,129.622 17.2656,126.497 Q17.2656,123.372 18.5781,121.7158 Q19.9063,120.0595 22.4063,120.0595 Q23.1094,120.0595 23.75,120.2158 Q24.4063,120.372 24.9688,120.6689 L24.9688,123.3877 Q24.3438,122.8095 23.75,122.5439 Q23.1563,122.2627 22.5313,122.2627 Q21.1875,122.2627 20.5,123.3408 Q19.8125,124.4033 19.8125,126.497 Q19.8125,128.5908 20.5,129.6689 Q21.1875,130.7314 22.5313,130.7314 Q23.1563,130.7314 23.75,130.4658 Q24.3438,130.1845 24.9688,129.6064 L24.9688,132.3252 Z " fill="#000000"/><text fill="#D9B8FF" font-family="Helvetica" font-size="17" lengthAdjust="spacing" textLength="355" x="41" y="132.5698">digitalocean_container_registry_repository</text></g><!--class digitalocean_container_registry_repository_tag--><g id="elem_digitalocean_container_registry_repository_tag"><rect codeLine="24" fill="#3D176E" height="39.7891" id="digitalocean_container_registry_repository_tag" rx="2.5" ry="2.5" style="stroke:#000D19;stroke-width:0.5;" width="433" x="115" y="206.58"/><ellipse cx="130" cy="226.4745" fill="#ADD1B2" rx="11" ry="11" style="stroke:#181818;stroke-width:1.0;"/><path d="M132.9688,232.1152 Q132.3906,232.412 131.75,232.5527 Q131.1094,232.7089 130.4063,232.7089 Q127.9063,232.7089 126.5781,231.0683 Q125.2656,229.412 125.2656,226.287 Q125.2656,223.162 126.5781,221.5058 Q127.9063,219.8495 130.4063,219.8495 Q131.1094,219.8495 131.75,220.0058 Q132.4063,220.162 132.9688,220.4589 L132.9688,223.1777 Q132.3438,222.5995 131.75,222.3339 Q131.1563,222.0527 130.5313,222.0527 Q129.1875,222.0527 128.5,223.1308 Q127.8125,224.1933 127.8125,226.287 Q127.8125,228.3808 128.5,229.4589 Q129.1875,230.5214 130.5313,230.5214 Q131.1563,230.5214 131.75,230.2558 Q132.3438,229.9745 132.9688,229.3964 L132.9688,232.1152 Z " fill="#000000"/><text fill="#D9B8FF" font-family="Helvetica" font-size="17" lengthAdjust="spacing" textLength="391" x="149" y="232.3598">digitalocean_container_registry_repository_tag</text></g><!--class digitalocean_team--><g id="elem_digitalocean_team"><rect codeLine="26" fill="#3D176E" height="39.7891" id="digitalocean_team" rx="2.5" ry="2.5" style="stroke:#000D19;stroke-width:0.5;" width="196" x="233.5" y="7"/><ellipse cx="248.5" cy="26.8945" fill="#ADD1B2" rx="11" ry="11" style="stroke:#181818;stroke-width:1.0;"/><path d="M251.4688,32.5352 Q250.8906,32.832 250.25,32.9727 Q249.6094,33.1289 248.9063,33.1289 Q246.4063,33.1289 245.0781,31.4883 Q243.7656,29.832 243.7656,26.707 Q243.7656,23.582 245.0781,21.9258 Q246.4063,20.2695 248.9063,20.2695 Q249.6094,20.2695 250.25,20.4258 Q250.9063,20.582 251.4688,20.8789 L251.4688,23.5977 Q250.8438,23.0195 250.25,22.7539 Q249.6563,22.4727 249.0313,22.4727 Q247.6875,22.4727 247,23.5508 Q246.3125,24.6133 246.3125,26.707 Q246.3125,28.8008 247,29.8789 Q247.6875,30.9414 249.0313,30.9414 Q249.6563,30.9414 250.25,30.6758 Q250.8438,30.3945 251.4688,29.8164 L251.4688,32.5352 Z " fill="#000000"/><text fill="#D9B8FF" font-family="Helvetica" font-size="17" lengthAdjust="spacing" textLength="154" x="267.5" y="32.7798">digitalocean_team</text></g><!--link digitalocean_container_registry_repository to digitalocean_container_registry_repository_tag--><g id="link_digitalocean_container_registry_repository_digitalocean_container_registry_repository_tag"><path codeLine="28" d="M230.39,147.01 C251.02,163.01 280.36,185.79 302.13,202.68 " fill="none" id="digitalocean_container_registry_repository-to-digitalocean_container_registry_repository_tag" style="stroke:#1A83AF;stroke-width:2.0;"/><polygon fill="#1A83AF" points="305.66,206.2,300.9985,197.5241,301.7086,203.1362,296.0965,203.8464,305.66,206.2" style="stroke:#1A83AF;stroke-width:2.0;"/></g><!--link digitalocean_team to digitalocean_container_registry_repository--><g id="link_digitalocean_team_digitalocean_container_registry_repository"><path codeLine="29" d="M306.61,47.22 C285.98,63.22 256.64,86 234.87,102.9 " fill="none" id="digitalocean_team-to-digitalocean_container_registry_repository" style="stroke:#1A83AF;stroke-width:2.0;"/><polygon fill="#1A83AF" points="231.34,106.41,240.9035,104.0564,235.2914,103.3462,236.0015,97.7341,231.34,106.41" style="stroke:#1A83AF;stroke-width:2.0;"/></g><!--link digitalocean_team to digitalocean_container_registry_repository_tag--><g id="link_digitalocean_team_digitalocean_container_registry_repository_tag"><path codeLine="30" d="M365.05,46.99 C385.53,60.7 409.92,81.24 421.5,106.79 C428.8,122.9 428.8,130.47 421.5,146.58 C410.83,170.13 389.26,189.43 369.91,203.05 " fill="none" id="digitalocean_team-to-digitalocean_container_registry_repository_tag" style="stroke:#1A83AF;stroke-width:2.0;"/><polygon fill="#1A83AF" points="366.05,206.38,375.7354,204.5931,370.1748,203.554,371.2138,197.9934,366.05,206.38" style="stroke:#1A83AF;stroke-width:2.0;"/></g><!--SRC=[hP1DIyD048Rl_HKBFHSIYxQz2B5Gz5B4UXC9q-nikYJP3RDJInJ_kubLMPD-4F6spFlCp3ExqH855YLNei1YZUG6BjEc1892H4HsDxUv9J5K2jHuqWuNrl1PO0a5YblCNv1r0ctYSQEJpA1puiABRY39Kh9R8_VZcS2uEaB37ZNFmRc8cVHwo-Z9oDbwgbIRR0yTZcKukS8EPaaYVI514CXmraREhZfvzm-nqgyeGl_JbfQnezbPyKcTj6m8Jx9pw7T-rF4UfDGc5PTUxM7lH0RfLtsr0Mbt3QqWT_uQnqXekIfnthaAPrEf9WVXksDmqloSa3hL3BbD44oSr5U0hfLYmbGxfgf-bDPfjbI9jy5xxwQO8JtMo5YBDbaFXz7JC8ocusZnFBhkgJ7eBl_ZjF-Rr7Xz0000]--></g></svg>

<svg xmlns="http://www.w3.org/2000/svg" width="555" height="252" preserveAspectRatio="none" style="width:555px;height:252px"><rect width="397" height="39.789" x="7" y="106.79" fill="#3D176E" rx="2.5" ry="2.5" style="stroke:#000d19;stroke-width:.5"/><circle cx="22" cy="126.684" r="11" fill="#ADD1B2" style="stroke:#181818;stroke-width:1"/><path d="M24.969 132.325q-.578.297-1.219.438-.64.156-1.344.156-2.5 0-3.828-1.64-1.312-1.657-1.312-4.782t1.312-4.781q1.328-1.656 3.828-1.656.703 0 1.344.156.656.156 1.219.453v2.719q-.625-.579-1.219-.844-.594-.281-1.219-.281-1.343 0-2.031 1.078-.688 1.062-.688 3.156 0 2.094.688 3.172.688 1.062 2.031 1.062.625 0 1.219-.265.594-.281 1.219-.86v2.72Z"/><text x="41" y="132.57" fill="#D9B8FF" font-family="Helvetica" font-size="17" textLength="355">digitalocean_container_registry_repository</text><rect width="433" height="39.789" x="115" y="206.58" fill="#3D176E" rx="2.5" ry="2.5" style="stroke:#000d19;stroke-width:.5"/><circle cx="130" cy="226.475" r="11" fill="#ADD1B2" style="stroke:#181818;stroke-width:1"/><path d="M132.969 232.115q-.578.297-1.219.438-.64.156-1.344.156-2.5 0-3.828-1.64-1.312-1.657-1.312-4.782t1.312-4.781q1.328-1.656 3.828-1.656.703 0 1.344.156.656.156 1.219.453v2.719q-.625-.578-1.219-.844-.594-.281-1.219-.281-1.344 0-2.031 1.078-.688 1.062-.688 3.156 0 2.094.688 3.172.688 1.062 2.031 1.062.625 0 1.219-.265.594-.281 1.219-.86v2.72Z"/><text x="149" y="232.36" fill="#D9B8FF" font-family="Helvetica" font-size="17" textLength="391">digitalocean_container_registry_repository_tag</text><rect width="196" height="39.789" x="233.5" y="7" fill="#3D176E" rx="2.5" ry="2.5" style="stroke:#000d19;stroke-width:.5"/><circle cx="248.5" cy="26.895" r="11" fill="#ADD1B2" style="stroke:#181818;stroke-width:1"/><path d="M251.469 32.535q-.578.297-1.219.438-.64.156-1.344.156-2.5 0-3.828-1.64-1.312-1.657-1.312-4.782t1.312-4.781q1.328-1.656 3.828-1.656.703 0 1.344.156.656.156 1.219.453v2.719q-.625-.578-1.219-.844-.594-.281-1.219-.281-1.344 0-2.031 1.078-.688 1.062-.688 3.156 0 2.094.688 3.172.688 1.062 2.031 1.062.625 0 1.219-.265.594-.281 1.219-.86v2.72Z"/><text x="267.5" y="32.78" fill="#D9B8FF" font-family="Helvetica" font-size="17" textLength="154">digitalocean_team</text><path fill="none" d="M230.39 147.01c20.63 16 49.97 38.78 71.74 55.67" style="stroke:#1a83af;stroke-width:2"/><path fill="#1A83AF" d="m305.66 206.2-4.662-8.676.71 5.612-5.612.71 9.564 2.354z" style="stroke:#1a83af;stroke-width:2"/><path fill="none" d="M306.61 47.22c-20.63 16-49.97 38.78-71.74 55.68" style="stroke:#1a83af;stroke-width:2"/><path fill="#1A83AF" d="m231.34 106.41 9.564-2.354-5.613-.71.71-5.612-4.661 8.676z" style="stroke:#1a83af;stroke-width:2"/><path fill="none" d="M365.05 46.99c20.48 13.71 44.87 34.25 56.45 59.8 7.3 16.11 7.3 23.68 0 39.79-10.67 23.55-32.24 42.85-51.59 56.47" style="stroke:#1a83af;stroke-width:2"/><path fill="#1A83AF" d="m366.05 206.38 9.685-1.787-5.56-1.039 1.039-5.56-5.164 8.386z" style="stroke:#1a83af;stroke-width:2"/></svg>
